icons/svg/24x24/star/outline.svg

<svg xmlns="http://www.w3.org/2000/svg" width="24" height="24" viewBox="0 0 24 24">
  <path fill-rule="evenodd" d="M16.043,13.4258 L15.334,14.1488 L15.497,15.1488 L16.124,18.9748 L12.965,17.2358 L12,16.7038 L11.035,17.2358 L7.876,18.9748 L8.503,15.1488 L8.666,14.1488 L7.958,13.4258 L5.22,10.6308 L8.92,10.0688 L9.974,9.9078 L10.428,8.9448 L12,5.6088 L13.572,8.9448 L14.026,9.9078 L15.08,10.0688 L18.78,10.6308 L16.043,13.4258 Z M21.297,8.9908 L15.381,8.0908 L12.736,2.4788 C12.585,2.1598 12.293,1.9998 12,1.9998 C11.707,1.9998 11.415,2.1598 11.264,2.4788 L8.619,8.0908 L2.703,8.9908 C2.03,9.0938 1.762,9.9598 2.249,10.4568 L6.529,14.8248 L5.519,20.9928 C5.428,21.5488 5.85,21.9998 6.327,21.9998 C6.453,21.9998 6.584,21.9688 6.709,21.8998 L12,18.9878 L17.291,21.8998 C17.416,21.9688 17.547,21.9998 17.673,21.9998 C18.15,21.9998 18.572,21.5488 18.481,20.9928 L17.471,14.8248 L21.751,10.4568 C22.238,9.9598 21.97,9.0938 21.297,8.9908 L21.297,8.9908 Z"/>
</svg>

<svg width="24" height="24" fill="none" xmlns="http://www.w3.org/2000/svg">
  <path fill-rule="evenodd" clip-rule="evenodd" d="M12 2a.8.8 0 00-.736.479L8.619 8.091l-5.916.9C2.27 9.057 2 9.449 2 9.838c0 .274.075.442.249.619l4.28 4.368-1.01 6.168c-.092.558.332 1.007.814 1.007a.77.77 0 00.376-.101L12 19l5.291 2.899a.767.767 0 00.376.101c.482 0 .905-.449.814-1.007l-1.01-6.168 4.28-4.368A.79.79 0 0022 9.838c0-.389-.27-.781-.703-.847l-5.916-.9-2.645-5.612A.8.8 0 0012 2zm0 3.608l1.572 3.336.454.964 1.054.16 3.7.563-2.738 2.795-.708.723.163.999.628 3.831-3.164-1.733L12 16.72l-.961.526-3.164 1.733.628-3.831.163-.999-.709-.723-2.737-2.795 3.7-.563 1.054-.16.454-.964L12 5.608z" fill="#000"/>
</svg>
